icons/files-csv-collection-16.svg

<svg id="icons" xmlns="http://www.w3.org/2000/svg" viewBox="0 0 16 16"><path d="M10,15h1v1H1V4H2V15h8Zm.39435-2H3v1H13V13H10.39435ZM4,3V2H3V6H4ZM5,0h6.40039L15,3.59961V6H14V5H10V1H6V6H5Zm6,1V4h3V3.68951L11.31049,1Zm3.5697,6-1.058,3.31738L12.46826,7H11.42047l1.59064,5.059h.99432L15.61993,7ZM6,12V11H4V8H6V7H3v5H6Zm4-3H8V8h2V7H7v3H9v1H7v1h3Z"/><path fill="none" d="M0 0h16v16H0z"/></svg>

<svg xmlns="http://www.w3.org/2000/svg" viewBox="0 0 16 16"><path d="M10 15h1v1H1V4h1v11h8zm.394-2H3v1h10v-1h-2.606zM4 3V2H3v4h1zm1-3h6.4L15 3.6V6h-1V5h-4V1H6v5H5zm6 1v3h3v-.31L11.31 1zm3.57 6l-1.058 3.317L12.468 7H11.42l1.591 5.059h.994L15.62 7zM6 12v-1H4V8h2V7H3v5h3zm4-3H8V8h2V7H7v3h2v1H7v1h3z"/><path fill="none" d="M0 0h16v16H0z"/></svg>
